X: 2
T: Fischer's Hornpipe  v.2
P: piffero secondo a0086
O: Dan Moylan
%R: hornpipe, reel
F: http://ancients.sudburymuster.org/mus/col/pdf/contraF.pdf
Z: 2019 John Chambers <jc:trillian.mit.edu>
M: 2/4
L: 1/16
K: D
(3cde |\
f2d2 c2c2 | d2A2 c2c2 | d2A2 c2G2 | d2A2 c2 (3cde |\
f2d2 c2c2 | d2A2 c2c2 | d2c2 G2e2 | f2f2 f2 :|
|: ed |\
c2A2 c2e2 | d2A2 d2ed | c2A2 c2e2 | g2e2 c2cA |\
G2B2 d2B2 | F2A2 d2A2 | G2A2 c2A2 | F2A2 F2 :|


